!! 00003] TT[TB
!! NN
!!!OTL: Dong fang hong (laut Notitzen)
!!!ARE: Neimeng
!! Ethnic Group: Menggu, Neimeng
!!TRD[MM, abgeschrieben
!!!SCT: C0001B
!!!YEM: Copyright 1995, estate of Helmut Schaffrath.
**kern
*ICvox
*Ivox
*M4/4
*k[b-e-]
*B-:
{8d
4g
8b-
8cc
8ff
4dd
=1
8b-
8g
16cc
16dd
8b-
8.g
16b-
4gg
=2
8cc
16dd
16ff
8b-
16g
16g
8cc
8dd
8ff
8bb-
=3
1gg}
=4
{8dd
4dd
8ff
8gg
8bb-
8gg
8ff
=5
8dd
4ff
8b-
8.cc
16dd
8.ff
16gg
=6
8dd
16dd
16ff
8cc
16b-
16b-
8.g
16b-
16cc
16dd
8ff
=7
1g}
=8
{8d
4g
8b-
8cc
8ff
4dd
=9
8b-
8g
16cc
16dd
8b-
8.g
16b-
4gg
=10
8cc
16dd
16ff
8b-
16g
16g
8.cc
16dd
8ff
8bb-
=11
1gg}
=12
{8dd
4dd
8ff
8.gg
16bb-
8gg
8ff
=13
8dd
4ff
8b-
8.cc
16dd
8.ff
16gg
=14
8dd
16dd
16ff
8cc
16b-
16b-
8.g
16b-
16cc
16dd
8ff
=15
1g}
=16
{4.g
8b-
8cc
8dd
4ff
=17
1gg
=18
8.b-
16g
8cc
8dd
8ff
8b-
4b-
=19
8b-
8cc
2.g
=20
1gg}
==
!! Der zweite Teil des vorigen Cuts. Alle Tonhoehen sind hier im Vergleich
!!    zur Notation eine Oktave erniedrigt.
!!!ONB: ESAC (Essen Associative Code) Database: CHINA
!!!AMT: simple quadruple
!!!AIN: vox
!!!EED: Helmut Schaffrath
!!!EEV: 1.0
*-
